icons/stack-16.svg

<svg width="16" height="16" viewBox="0 0 16 16" fill="none" xmlns="http://www.w3.org/2000/svg">
<path fill-rule="evenodd" clip-rule="evenodd" d="M7.122 0.392232C7.66498 0.0773046 8.33503 0.0773046 8.87801 0.392232L13.8806 3.29372C14.711 3.77539 14.711 4.97463 13.8806 5.4563L8.87801 8.35779C8.33503 8.67271 7.66498 8.67271 7.122 8.35779L2.11943 5.4563C1.28896 4.97463 1.28896 3.77539 2.11943 3.29372L7.122 0.392232ZM8.12544 1.68978C8.04787 1.64479 7.95215 1.64479 7.87458 1.68978L3.24487 4.37501L7.87458 7.06024C7.95215 7.10523 8.04787 7.10523 8.12544 7.06024L12.7551 4.37501L8.12544 1.68978ZM1.60123 7.78872C1.80905 7.43041 2.26799 7.30842 2.62629 7.51624L7.87458 10.5602C7.95214 10.6052 8.04787 10.6052 8.12544 10.5602L13.3737 7.51624C13.732 7.30842 14.191 7.43041 14.3988 7.78872C14.6066 8.14703 14.4846 8.60596 14.1263 8.81378L8.87801 11.8578C8.33503 12.1727 7.66498 12.1727 7.122 11.8578L1.87372 8.81378C1.51541 8.60596 1.39341 8.14703 1.60123 7.78872ZM1.60123 11.2887C1.80905 10.9304 2.26799 10.8084 2.62629 11.0162L7.87458 14.0602C7.95214 14.1052 8.04787 14.1052 8.12544 14.0602L13.3737 11.0162C13.732 10.8084 14.191 10.9304 14.3988 11.2887C14.6066 11.647 14.4846 12.106 14.1263 12.3138L8.87801 15.3578C8.33503 15.6727 7.66498 15.6727 7.122 15.3578L1.87372 12.3138C1.51541 12.106 1.39341 11.647 1.60123 11.2887Z" fill="black"/>
</svg>

<svg xmlns="http://www.w3.org/2000/svg" width="16" height="16" viewBox="0 0 16 16"><path fill-rule="evenodd" d="M7.122.392a1.75 1.75 0 011.756 0l5.003 2.902c.83.481.83 1.68 0 2.162L8.878 8.358a1.75 1.75 0 01-1.756 0L2.119 5.456a1.25 1.25 0 010-2.162L7.122.392zM8.125 1.69a.25.25 0 00-.25 0l-4.63 2.685 4.63 2.685a.25.25 0 00.25 0l4.63-2.685-4.63-2.685zM1.601 7.789a.75.75 0 011.025-.273l5.249 3.044a.25.25 0 00.25 0l5.249-3.044a.75.75 0 01.752 1.298l-5.248 3.044a1.75 1.75 0 01-1.756 0L1.874 8.814A.75.75 0 011.6 7.789zm0 3.5a.75.75 0 011.025-.273l5.249 3.044a.25.25 0 00.25 0l5.249-3.044a.75.75 0 01.752 1.298l-5.248 3.044a1.75 1.75 0 01-1.756 0l-5.248-3.044a.75.75 0 01-.273-1.025z"/></svg>
